img/icons/svg/contracts__icon-2.svg

<svg width="37" height="39" fill="none" xmlns="http://www.w3.org/2000/svg">
  <g clip-path="url(#clip0)">
    <path d="M21.1019 0.395752C21.1019 0.395752 22.3856 5.10995 22.3856 8.93473C22.3856 12.5994 20.0438 15.5791 16.4618 15.5791C12.8798 15.5791 10.1738 12.6082 10.1738 8.93473L10.2171 8.2943C6.73046 12.5727 4.62286 18.0874 4.62286 24.1092C4.62286 31.9721 10.8329 38.3408 18.5001 38.3408C26.1672 38.3408 32.3773 31.9722 32.3773 24.1092C32.3772 14.5117 27.8758 5.95501 21.1019 0.395752ZM17.9969 33.004C14.9093 33.004 12.4027 30.5046 12.4027 27.418C12.4027 24.5272 14.2153 22.4992 17.2857 21.8677C20.356 21.2362 23.5304 19.724 25.291 17.2869C25.9675 19.5818 26.3231 22.0011 26.3231 24.465C26.3232 29.1703 22.5938 33.004 17.9969 33.004Z" fill="#304BAB"/>
  </g>
  <defs>
    <clipPath id="clip0">
      <path fill="#fff" d="M0 0H37V37.9H0z"/>
    </clipPath>
  </defs>
</svg>

<svg width="37" height="39" fill="none" xmlns="http://www.w3.org/2000/svg"><g clip-path="url(#clip0)"><path d="M21.102.396s1.284 4.714 1.284 8.539c0 3.664-2.342 6.644-5.924 6.644-3.582 0-6.288-2.97-6.288-6.644l.043-.64c-3.487 4.278-5.594 9.792-5.594 15.814 0 7.863 6.21 14.232 13.877 14.232 7.667 0 13.877-6.369 13.877-14.232 0-9.597-4.501-18.154-11.275-23.713zm-3.105 32.608a5.59 5.59 0 01-5.594-5.586c0-2.89 1.812-4.919 4.883-5.55 3.07-.632 6.244-2.144 8.005-4.581a25.4 25.4 0 011.032 7.178c0 4.705-3.73 8.539-8.326 8.539z" fill="#304BAB"/></g><defs><clipPath id="clip0"><path fill="#fff" d="M0 0h37v37.9H0z"/></clipPath></defs></svg>
